X: 15850
T: Gortree, The
R: jig
M: 6/8
K: Dmajor
|:AFD DFD|BAF AFD|~B3 dcd|~f3 afd|
AFD DFD|BAF ABd|~f3 afe|dfe d3:|
|:afd ~B3|FAF BdB|~A2f afd|~B2g ede|
~f3 fed|~B3 AFD|DEF AFD|EFE D3:|
|:~A3 FED|~B3 AFD|~E3 FED|EFE D2F|
~A3 BdB|FAF DFA|~B3 Ace|gfe d3:|

